X:2014 
T:All ye that are to mirth inclined
C:Traditional carol, William Duke
O:Isle of Man
S:William Duke
Z:Clague collection
N:See also KV 267, 269, 275 and 385 
B:Kiaull Vannin #14
M:2/4 
L:1/8 
Q:100 
K:G
G2|BA GA|d2 ed|A2 d2| (e!3!dc) AB|d2 ee|d2 d2|e/f/g/e/ d2|BA GA|B2 A2|Bd dB|G2 AA|G2|| 
